icons/op-relation-new-child-24.svg

<svg width="24" height="24" viewBox="0 0 24 24" fill="none" xmlns="http://www.w3.org/2000/svg">
<path d="M5.24749 12.3049L5.22958 7.00675L4 7V13.8519H4.29751L4.29748 13.8688H6.10215V16.9809C6.99128 15.4721 8.4291 14.0544 9.59257 13.2207C8.4291 12.387 6.99128 10.9626 6.10215 9.46399V12.2978L5.24749 12.3049Z" fill="black"/>
<path fill-rule="evenodd" clip-rule="evenodd" d="M20 9.79929H10.1281V17H20V9.79929ZM19.2949 10.5194H10.8332V11.9595H19.2949V10.5194Z" fill="black"/>
</svg>

<svg xmlns="http://www.w3.org/2000/svg" width="24" height="24" viewBox="0 0 24 24"><path d="M5.247 12.305 5.23 7.007 4 7v6.852h.298l-.001.017h1.805v3.112c.889-1.509 2.327-2.927 3.491-3.76-1.164-.834-2.602-2.258-3.491-3.757v2.834l-.855.007ZM20 9.799V17h-9.872V9.799Zm-.705.72h-8.462v1.441h8.462Z"/></svg>
